packages/crayons-icon/icons/folder.svg

<?xml version="1.0" encoding="UTF-8"?>
<svg width="16px" height="14px" viewBox="0 0 16 14" version="1.1" xmlns="http://www.w3.org/2000/svg" xmlns:xlink="http://www.w3.org/1999/xlink">
    <!-- Generator: Sketch 52.6 (67491) - http://www.bohemiancoding.com/sketch -->
    <title>icon/folder</title>
    <desc>Created with Sketch.</desc>
    <g id="Icons-✅" stroke="none" stroke-width="1" fill="none" fill-rule="evenodd">
        <g id="Icons" transform="translate(-572.000000, -1993.000000)" fill="currentColor">
            <g id="icon/folder" transform="translate(572.000000, 1993.000000)">
                <g id="folder">
                    <path d="M15.86,5 C15.7299153,4.81996131 15.5221046,4.71234508 15.3,4.71 L13.54,4.71 L13.54,4 C13.5453341,3.37593539 13.3011559,2.7755963 12.8617413,2.33242603 C12.4223267,1.88925575 11.8240874,1.6399772 11.2,1.64 L6.73,1.64 L5.3,0.21 C5.16898008,0.0746923951 4.98834273,-0.00117529306 4.8,-1.69406589e-21 L2.34,-1.69406589e-21 C1.04765369,-1.11023997e-16 -3.12733501e-16,1.04765369 -4.7100028e-16,2.34 L-4.7100028e-16,11.66 C-6.91926571e-05,12.0914447 0.1212159,12.5142099 0.35,12.88 C0.77422931,13.5781265 1.53309022,14.0030886 2.35,14 L11.35,14 C12.5575157,14.0365249 13.6412756,13.2635792 14,12.11 L16,5.64 C16.0640424,5.41670135 16.0114251,5.17616513 15.86,5 Z M2.34,1.4 L4.51,1.4 L6,2.83 C6.12300702,2.93515454 6.2782455,2.99513305 6.44,3 L11.2,3 C11.7191477,3 12.14,3.42085234 12.14,3.94 L12.14,4.69 L3.14,4.69 C2.83450577,4.69217786 2.56465482,4.88953154 2.47,5.18 L1.4,8.72 L1.4,2.34 C1.4,1.82085234 1.82085234,1.4 2.34,1.4 Z M12.61,11.69 C12.4396935,12.2315401 11.9376883,12.5999472 11.37,12.6 L2.37,12.6 C2.14213481,12.6018801 1.92150952,12.5200352 1.75,12.37 L3.75,6.13 L14.35,6.13 L12.61,11.69 Z" id="Shape"></path>
                </g>
            </g>
        </g>
    </g>
</svg>

<svg viewBox="0 0 16 14"><path d="M15.86 5a.7.7 0 0 0-.56-.29h-1.76V4a2.34 2.34 0 0 0-2.34-2.36H6.73L5.3.21A.69.69 0 0 0 4.8 0H2.34A2.34 2.34 0 0 0 0 2.34v9.32c0 .431.121.854.35 1.22a2.33 2.33 0 0 0 2 1.12h9A2.69 2.69 0 0 0 14 12.11l2-6.47a.69.69 0 0 0-.14-.64zM2.34 1.4h2.17L6 2.83a.71.71 0 0 0 .44.17h4.76c.52 0 .94.42.94.94v.75h-9a.71.71 0 0 0-.67.49L1.4 8.72V2.34c0-.52.42-.94.94-.94zm10.27 10.29a1.3 1.3 0 0 1-1.24.91h-9a.93.93 0 0 1-.62-.23l2-6.24h10.6l-1.74 5.56z" fill="currentColor" fill-rule="evenodd"/></svg>
